X:600
T:Reel 600
M:4/4
K:Dmaj
L:1/8
AG|FDEC A,DD2|ADEF GFEd|FDFA d2cd|AGFG E2AG|FDEC A,2D2|FGAF E2D2|FDEC DDFB|AGFE D2|Ac|BcBA BAFE|FDB,D E2FG|AFEF D2FD|A,DCD E2FG|AFEG FDEC|DCDF A2dc|BAGF GEFD|EDEF D2|
